picto/car-ferry-right-framed.svg

<svg class="color-immutable" width="30" height="30" viewBox="0 0 30 30" fill="none" xmlns="http://www.w3.org/2000/svg"><path d="M0 0H30V30H0V0Z" fill="#2D327D"/><path d="M25.5 3C26.325 3 27 3.675 27 4.5V25.5C27 26.325 26.325 27 25.5 27H4.5C3.675 27 3 26.325 3 25.5V4.5C3 3.675 3.675 3 4.5 3H25.5ZM25.5 2.625H4.5C3.46613 2.625 2.625 3.46613 2.625 4.5V25.5C2.625 26.5339 3.46613 27.375 4.5 27.375H25.5C26.5339 27.375 27.375 26.5339 27.375 25.5V4.5C27.375 3.46613 26.5339 2.625 25.5 2.625Z" fill="white"/><path d="M11.359 17.0158C11.2296 17.0158 11.1246 16.9108 11.1246 16.7815V15.1293C11.1246 14.9428 11.1985 14.7639 11.3306 14.6321L12.7372 13.2255C12.8687 13.0938 13.0478 13.0195 13.2343 13.0195H17.2868C17.4734 13.0195 17.652 13.0937 17.7839 13.2255L19.4175 14.8593L22.1598 15.0867C22.2812 15.0967 22.3747 15.1983 22.3747 15.3202V16.7815C22.3747 16.9108 22.2695 17.0158 22.1403 17.0158H21.8825V16.7463C21.8825 15.9698 21.2526 15.3399 20.4763 15.3399C19.6999 15.3399 19.0699 15.9698 19.0699 16.7463V17.0158H14.4058V16.7463C14.4058 15.9698 13.7759 15.3399 12.9996 15.3399C12.2232 15.3399 11.5932 15.9698 11.5932 16.7463V17.0158H11.359ZM15.5526 13.6996L15.5541 14.6605C15.5541 14.7898 15.659 14.8946 15.7882 14.8946L18.5186 14.8944C18.5805 14.8944 18.631 14.8442 18.631 14.782C18.631 14.7522 18.6191 14.7235 18.5979 14.7025L17.4289 13.5334H17.4292C17.385 13.4895 17.3256 13.4649 17.2633 13.4649H15.7869C15.6577 13.4649 15.5526 13.5698 15.5526 13.6993V13.6996ZM12.0024 14.8944L14.8733 14.8946C15.0027 14.8946 15.1076 14.7898 15.1076 14.6603V13.6994C15.1076 13.57 15.0027 13.465 14.8733 13.465H13.2576C13.1955 13.465 13.1358 13.4896 13.092 13.5335L11.9228 14.7027C11.9019 14.7236 11.8899 14.7523 11.8899 14.7821C11.8899 14.8443 11.9403 14.8944 12.0024 14.8944Z" fill="white"/><path d="M21.7251 22.2878C21.2939 22.1922 20.858 22.1191 20.4193 22.0687C20.0547 22.0202 19.6873 21.9958 19.3196 21.9958C18.4835 21.9958 17.6526 22.1212 16.8535 22.3674C16.3194 22.5317 15.7637 22.6155 15.205 22.6155C15.1512 22.6155 15.0972 22.615 15.0438 22.6134C14.4311 22.594 13.826 22.4739 13.2521 22.2584C12.3105 21.9047 11.3129 21.7236 10.307 21.7236C10.108 21.7236 9.90903 21.7308 9.71058 21.7447C8.4427 21.8134 7.19178 22.0713 5.99988 22.5101L6.00205 16.5H8.39425C8.60118 16.5 8.76918 16.3321 8.76918 16.1251C8.76918 16.1178 8.76895 16.1106 8.76865 16.1036L8.68623 14.6784C8.67483 14.48 8.5108 14.3249 8.31183 14.3249H6.0016V12.7501H8.1775C8.38473 12.7501 8.55265 12.5821 8.55265 12.3751C8.55265 12.3676 8.55235 12.3607 8.55213 12.3534L8.4718 10.9658C8.46048 10.7674 8.29638 10.6126 8.0977 10.6126H6.0016V9.74985H9.78925C9.95485 9.74985 10.0893 9.88425 10.0893 10.0501V10.0852C10.0893 10.2986 9.9262 10.4769 9.71358 10.496L9.25315 10.5373L10.4583 17.3799C10.5213 17.7385 10.833 17.9998 11.1968 17.9998H22.627L23.8713 14.9249L24.4326 15.1373L21.7251 22.2878Z" fill="white"/><path d="M6.00027 23.0709C7.19825 22.6085 8.46162 22.338 9.74382 22.2688C9.93117 22.2553 10.1192 22.2486 10.3071 22.2486C11.2498 22.2486 12.1845 22.4183 13.0671 22.7497C13.6949 22.9857 14.3571 23.1166 15.0272 23.1378C15.0861 23.1396 15.1452 23.1406 15.2045 23.1406C15.8154 23.1406 16.4234 23.0489 17.0073 22.8691C17.7559 22.6381 18.5349 22.5211 19.3185 22.5211C19.6647 22.5211 20.0106 22.5439 20.3537 22.5896C21.6139 22.734 22.844 23.0737 24.0001 23.5961V24.55C22.8223 23.9679 21.5528 23.594 20.2476 23.4455C19.9396 23.4042 19.6293 23.3833 19.3185 23.3833C18.621 23.3833 17.9278 23.4879 17.2615 23.6932C16.595 23.8984 15.9015 24.0028 15.2046 24.0028C15.1366 24.0028 15.0692 24.0017 15.0015 23.9999C14.2362 23.9759 13.4805 23.8264 12.7641 23.5571H12.7638C11.9784 23.2621 11.1463 23.1109 10.3071 23.1109C10.1374 23.1109 9.9677 23.1172 9.7982 23.1295C8.49147 23.1991 7.20635 23.4938 6.00012 24.0007L6.00027 23.0709Z" fill="white"/><path fill-rule="evenodd" clip-rule="evenodd" d="M12.9989 17.1923C13.2684 17.1923 13.4867 16.9736 13.4867 16.7047C13.4867 16.4354 13.2684 16.2169 12.9989 16.2169C12.7299 16.2169 12.5113 16.4355 12.5113 16.7047C12.5113 16.9736 12.7299 17.1923 12.9989 17.1923ZM12.9987 15.638C13.5876 15.638 14.0654 16.1158 14.0654 16.7047C14.0654 17.2933 13.5876 17.771 12.9987 17.771C12.4101 17.771 11.9326 17.2933 11.9326 16.7047C11.9326 16.1158 12.4101 15.638 12.9987 15.638Z" fill="white"/><path fill-rule="evenodd" clip-rule="evenodd" d="M20.475 17.1923C20.7443 17.1923 20.9629 16.9736 20.9629 16.7047C20.9629 16.4354 20.7443 16.2169 20.475 16.2169C20.2058 16.2169 19.9872 16.4355 19.9872 16.7047C19.9872 16.9736 20.2058 17.1923 20.475 17.1923ZM20.475 15.638C21.0637 15.638 21.5415 16.1158 21.5415 16.7047C21.5415 17.2933 21.0637 17.771 20.475 17.771C19.8864 17.771 19.4087 17.2933 19.4087 16.7047C19.4087 16.1158 19.8864 15.638 20.475 15.638Z" fill="white"/></svg>

<svg class="color-immutable" width="30" height="30" viewBox="0 0 30 30" fill="none" xmlns="http://www.w3.org/2000/svg"><g clip-path="url(#a)"><path d="M0 0h30v30H0V0Z" fill="#2D327D"/><path d="M25.5 3c.825 0 1.5.675 1.5 1.5v21c0 .825-.675 1.5-1.5 1.5h-21c-.825 0-1.5-.675-1.5-1.5v-21C3 3.675 3.675 3 4.5 3h21Zm0-.375h-21A1.877 1.877 0 0 0 2.625 4.5v21c0 1.034.841 1.875 1.875 1.875h21a1.877 1.877 0 0 0 1.875-1.875v-21A1.877 1.877 0 0 0 25.5 2.625Z" fill="#fff"/><path d="M11.359 17.016a.234.234 0 0 1-.234-.234v-1.653c0-.186.073-.365.206-.497l1.406-1.406a.703.703 0 0 1 .497-.207h4.053c.186 0 .365.075.497.207l1.634 1.633 2.742.228c.121.01.215.111.215.233v1.462c0 .129-.105.234-.235.234h-.258v-.27a1.407 1.407 0 0 0-2.812 0v.27h-4.664v-.27a1.407 1.407 0 0 0-2.813 0v.27h-.234Zm4.194-3.316.001.96c0 .13.105.235.234.235h2.73a.112.112 0 0 0 .08-.192l-1.17-1.17h.001a.235.235 0 0 0-.166-.068h-1.476a.234.234 0 0 0-.234.234Zm-3.55 1.194h2.87c.13 0 .235-.104.235-.234v-.96a.234.234 0 0 0-.235-.235h-1.615a.234.234 0 0 0-.166.069l-1.17 1.169a.113.113 0 0 0 .08.191Z" fill="#fff"/><path d="M21.725 22.288a12.763 12.763 0 0 0-1.306-.22 8.34 8.34 0 0 0-3.566.3 5.607 5.607 0 0 1-1.81.245 5.6 5.6 0 0 1-1.79-.355 8.375 8.375 0 0 0-3.542-.513A12.736 12.736 0 0 0 6 22.51l.002-6.01h2.392a.375.375 0 0 0 .375-.396l-.083-1.426a.375.375 0 0 0-.374-.353h-2.31V12.75h2.176a.375.375 0 0 0 .375-.375v-.022l-.081-1.387a.375.375 0 0 0-.374-.353H6.002V9.75h3.787a.3.3 0 0 1 .3.3v.035a.413.413 0 0 1-.375.411l-.46.041 1.204 6.843a.75.75 0 0 0 .739.62h11.43l1.244-3.075.562.212-2.708 7.15Z" fill="#fff"/><path d="M6 23.07a12.226 12.226 0 0 1 3.744-.801 7.84 7.84 0 0 1 3.323.48 6.12 6.12 0 0 0 2.137.392c.611 0 1.22-.092 1.803-.272a7.838 7.838 0 0 1 3.347-.28c1.26.145 2.49.485 3.646 1.007v.954a11.37 11.37 0 0 0-3.752-1.105 6.99 6.99 0 0 0-2.986.248 6.991 6.991 0 0 1-2.26.307 6.98 6.98 0 0 1-2.238-.443 6.987 6.987 0 0 0-2.966-.427c-1.307.07-2.592.364-3.798.87v-.93Z" fill="#fff"/><path fill-rule="evenodd" clip-rule="evenodd" d="M12.999 17.192a.488.488 0 1 0 0-.975.488.488 0 0 0 0 .975Zm0-1.554a1.067 1.067 0 1 1 0 2.134 1.067 1.067 0 0 1 0-2.134ZM20.475 17.192a.488.488 0 1 0 0-.976.488.488 0 0 0 0 .976Zm0-1.554a1.067 1.067 0 1 1 0 2.134 1.067 1.067 0 0 1 0-2.134Z" fill="#fff"/></g><defs><clipPath id="a"><path fill="#fff" d="M0 0h30v30H0z"/></clipPath></defs></svg>
